X:19
T:Domhnall Dubh
R:highland
H:Also as a strathspey
Z:id:hn-hf-19
M:C|
L:1/8
K:Ador
A2Bd f2f2 | eBdB GABG | A2Bd f2f2 |1 eBdB A3G :|2 eBdB A3B ||
|: cA~A2 ABcA | B2BA GABd | cA~A2 ABcA |1 e2dB A3B :|2 e2dB A3G ||
<end>
<start>
